dist/img/catalog-brand/cb_icon_1.svg

<svg width="28" height="28" viewBox="0 0 28 28" fill="none" xmlns="http://www.w3.org/2000/svg">
<path d="M1.40039 10.0799V23.5199C1.40039 24.4477 2.18385 25.1999 3.15039 25.1999H8.40039V8.3999H3.15039C2.18385 8.3999 1.40039 9.15203 1.40039 10.0799Z" fill="#FC00FF"/>
<path d="M23.7794 10.8H19.2677C18.8732 10.8 18.6756 10.5242 18.6092 10.4054C18.5429 10.2875 18.4086 9.97263 18.5995 9.61169L20.1902 6.61089C20.5392 5.95386 20.575 5.1812 20.2894 4.49135C20.0038 3.80072 19.44 3.29993 18.7427 3.1179L17.6211 2.82415C17.3482 2.75227 17.0588 2.84368 16.8687 3.06478L10.779 10.1523C10.1473 10.889 9.7998 11.839 9.7998 12.8281V21.2C9.7998 23.4055 11.5128 25.2001 13.618 25.2001L21.2148 25.1993C22.93 25.1993 24.4446 23.9891 24.8973 22.2571L26.5275 14.4195C26.5752 14.2015 26.5998 13.9781 26.5998 13.7547C26.5998 12.1257 25.3343 10.8 23.7794 10.8L23.7794 10.8Z" fill="#FC00FF"/>
</svg>

<svg width="28" height="28" viewBox="0 0 28 28" fill="none" xmlns="http://www.w3.org/2000/svg"><path d="M1.4 10.08v13.44c0 .928.784 1.68 1.75 1.68H8.4V8.4H3.15c-.966 0-1.75.752-1.75 1.68zm22.38.72h-4.512a.748.748 0 01-.659-.395.82.82 0 01-.01-.793L20.19 6.61a2.48 2.48 0 00.1-2.12 2.304 2.304 0 00-1.547-1.373l-1.122-.294a.74.74 0 00-.752.24l-6.09 7.088a4.107 4.107 0 00-.98 2.676V21.2c0 2.206 1.714 4 3.819 4h7.597c1.715 0 3.23-1.21 3.682-2.943l1.63-7.838c.048-.218.073-.44.073-.664 0-1.63-1.266-2.955-2.82-2.955z" fill="#FC00FF"/></svg>
